X: 1463
T: Anderson Family Fling, The
R: strathspey
M: 4/4
K: Gmajor
|:d2|B<GB>d g2 e>d|e<^cd>B A2 d>=c|B2 (3B^cd g>fe>d|(3efg f>a g2:|
a2|b>g (3agf g2 e<d|e<^cd>B A>fg<a|b2 a>f g2 (3fed|e>gf>a g<fg>a|
b>g (3ggg a>f (3fff|g>e (3eee (3cdc (3cBA|B2 (3Bcd g2 (3fed|e>gf<a g2||

